src/assets/svgs/footer-phone.svg

<svg xmlns="http://www.w3.org/2000/svg" width="20" height="20" viewBox="0 0 20 20" fill="none">
<path d="M16.2 10.8333C16.0166 10.8333 15.825 10.775 15.6416 10.7333C15.2704 10.6515 14.9055 10.5429 14.55 10.4083C14.1634 10.2677 13.7384 10.275 13.3569 10.4288C12.9754 10.5827 12.6642 10.8722 12.4833 11.2416L12.3 11.6166C11.4883 11.1651 10.7424 10.6043 10.0833 9.94997C9.42894 9.29082 8.86815 8.54497 8.41663 7.7333L8.76663 7.49997C9.1361 7.31907 9.42561 7.00791 9.57946 6.62638C9.7333 6.24485 9.7406 5.8199 9.59996 5.4333C9.46765 5.07699 9.35908 4.7123 9.27496 4.34164C9.2333 4.1583 9.19996 3.96664 9.17496 3.77497C9.07377 3.18799 8.76632 2.65642 8.30798 2.276C7.84964 1.89559 7.27054 1.69131 6.67496 1.69997H4.17496C3.81582 1.6966 3.46017 1.77065 3.13222 1.91708C2.80427 2.06351 2.51172 2.27888 2.27449 2.54854C2.03725 2.81819 1.86091 3.1358 1.75745 3.47973C1.654 3.82367 1.62586 4.18585 1.67496 4.54164C2.11891 8.03279 3.71332 11.2765 6.20634 13.7605C8.69936 16.2445 11.9489 17.8271 15.4416 18.2583H15.7583C16.3728 18.2592 16.9661 18.0337 17.425 17.625C17.6886 17.3892 17.8992 17.1001 18.0429 16.7769C18.1865 16.4537 18.2599 16.1037 18.2583 15.75V13.25C18.2481 12.6711 18.0373 12.1138 17.6619 11.673C17.2865 11.2323 16.7698 10.9355 16.2 10.8333V10.8333ZM16.6166 15.8333C16.6165 15.9516 16.5911 16.0686 16.5423 16.1763C16.4934 16.2841 16.4222 16.3802 16.3333 16.4583C16.2405 16.5391 16.1316 16.5995 16.0139 16.6354C15.8961 16.6713 15.7721 16.6819 15.65 16.6666C12.529 16.2665 9.63016 14.8387 7.41056 12.6085C5.19096 10.3784 3.77697 7.47275 3.39163 4.34997C3.37837 4.2279 3.38999 4.10441 3.4258 3.98696C3.4616 3.86951 3.52085 3.76054 3.59996 3.66664C3.67805 3.57775 3.77418 3.50651 3.88194 3.45765C3.98971 3.4088 4.10664 3.38345 4.22496 3.3833H6.72496C6.91875 3.37899 7.10798 3.44237 7.26008 3.56253C7.41218 3.68269 7.51764 3.85211 7.55829 4.04164C7.59163 4.26942 7.6333 4.49442 7.6833 4.71664C7.77956 5.15592 7.90768 5.58762 8.06663 6.0083L6.89996 6.54997C6.80021 6.59574 6.71048 6.66076 6.63593 6.7413C6.56137 6.82184 6.50346 6.91632 6.46552 7.0193C6.42758 7.12228 6.41035 7.23175 6.41483 7.34141C6.41932 7.45107 6.44541 7.55876 6.49163 7.6583C7.69096 10.2273 9.756 12.2923 12.325 13.4916C12.5278 13.575 12.7554 13.575 12.9583 13.4916C13.0622 13.4545 13.1577 13.397 13.2393 13.3226C13.3208 13.2482 13.3868 13.1584 13.4333 13.0583L13.95 11.8916C14.3808 12.0457 14.8204 12.1737 15.2666 12.275C15.4889 12.325 15.7139 12.3666 15.9416 12.4C16.1312 12.4406 16.3006 12.5461 16.4207 12.6982C16.5409 12.8503 16.6043 13.0395 16.6 13.2333L16.6166 15.8333Z" fill="#BABABA"/>
</svg>

<svg xmlns="http://www.w3.org/2000/svg" width="20" height="20" fill="none"><path d="M16.2 10.833c-.183 0-.375-.058-.558-.1a7.86 7.86 0 0 1-1.092-.325 1.667 1.667 0 0 0-2.067.834l-.183.375a10.148 10.148 0 0 1-2.217-1.667 10.15 10.15 0 0 1-1.666-2.217l.35-.233A1.667 1.667 0 0 0 9.6 5.433a8.61 8.61 0 0 1-.325-1.091 6.185 6.185 0 0 1-.1-.567 2.5 2.5 0 0 0-2.5-2.075h-2.5a2.5 2.5 0 0 0-2.5 2.842 15.833 15.833 0 0 0 13.767 13.716h.316a2.5 2.5 0 0 0 2.285-1.481c.143-.323.217-.673.215-1.027v-2.5a2.5 2.5 0 0 0-2.058-2.417Zm.417 5a.833.833 0 0 1-.603.802.875.875 0 0 1-.364.032A14.166 14.166 0 0 1 3.392 4.35a.908.908 0 0 1 .208-.683.833.833 0 0 1 .625-.284h2.5a.833.833 0 0 1 .833.659c.034.227.075.452.125.675.097.439.225.87.384 1.291L6.9 6.55a.833.833 0 0 0-.408 1.108 12.075 12.075 0 0 0 5.833 5.834c.203.083.43.083.633 0a.833.833 0 0 0 .475-.434l.517-1.166c.43.154.87.282 1.317.383.222.05.447.092.675.125a.833.833 0 0 1 .658.833l.017 2.6Z" fill="#BABABA"/></svg>
